assets/img/header/icon.svg

<svg width="19" height="19" viewBox="0 0 19 19" fill="none" xmlns="http://www.w3.org/2000/svg">
<path d="M1.64111 4.96058C1.79426 4.76583 1.99595 4.50221 2.15747 4.31379C2.6412 3.79446 2.70397 3.72638 3.14417 3.34242C3.27473 3.24108 3.42956 3.11917 3.58103 3.00437C2.46378 3.89896 2.32151 4.88933 3.3467 5.50129C3.34503 5.50129 3.34503 5.50129 3.34503 5.50287C4.77863 6.31987 7.92034 6.14333 10.3992 5.09675C12.8003 4.08342 13.6865 2.63388 12.5015 1.77254C11.4612 1.58808 10.221 1.56671 8.90871 1.73296L8.7723 1.52L8.88528 1.16692C9.6569 1.10121 10.39 1.11704 11.0227 1.21917C11.1759 1.24371 11.3776 1.28567 11.5282 1.31575C11.8194 1.38304 11.9776 1.42342 12.1676 1.48121C12.3617 1.53583 12.5274 1.59046 12.8162 1.69179C13.099 1.79708 13.2212 1.84458 13.448 1.95146C13.702 2.06108 13.9488 2.18506 14.187 2.32275C16.0751 3.44612 14.9009 5.49575 11.5692 6.90017C8.24673 8.29983 4.01287 8.51992 2.11563 7.41C2.11479 7.40842 2.11228 7.40683 2.10726 7.40525H2.11061C1.07453 6.78458 0.965735 5.88367 1.64111 4.96058ZM10.2854 12.8139L10.2586 11.552L9.31042 10.5545C6.17792 11.2258 3.09898 11.0817 1.38669 10.1278C1.38084 10.1215 1.36661 10.1151 1.36075 10.1088C0.391624 9.54433 0.152272 8.816 0.225082 8.02433C-0.00171646 9.18254 -0.0201282 9.60054 0.0125108 10.5917C0.0526817 11.2124 0.431795 11.7847 1.19421 12.236L1.20007 12.2423C3.02533 13.3158 6.82819 13.5486 10.2854 12.8139ZM14.2397 14.2587C9.81842 15.9362 4.28486 16.0352 1.8813 14.4827C2.14087 15.0828 2.49406 15.6427 2.92909 16.1437C5.13515 17.5687 10.2143 17.4776 14.2707 15.9378C16.645 15.0377 18.143 13.8399 18.5364 12.7173L18.6468 12.3793C18.9088 11.5227 18.9582 10.8094 19 10.1745C18.9523 11.5528 17.2358 13.1203 14.2397 14.2587ZM4.47986 17.4895C4.61878 17.6146 5.05564 18.122 7.26923 18.6825C7.86761 18.8076 9.37403 19.209 12.1567 18.6255L12.1734 18.3857L11.9533 18.0595C9.37151 18.6374 6.50347 18.4442 4.47986 17.4895ZM10.8687 7.50737L13.2196 9.19283C13.2196 9.19283 13.7225 9.53563 13.248 9.77629C12.7752 10.0146 11.5608 10.598 11.5608 10.598L10.3616 10.1745L9.75983 10.4278L10.821 11.2995L10.8294 12.6556L11.4529 12.3935L11.8663 11.248C11.8663 11.248 13.1359 10.7857 13.6397 10.6115C14.146 10.4413 14.0782 11.024 14.0782 11.024L13.8288 13.8035L14.6573 13.4552L16.0215 9.70504C16.0215 9.70504 16.7446 9.37254 17.2534 9.08042C17.7614 8.78829 17.9355 8.30379 17.9355 8.30379C17.9355 8.30379 17.44 8.10192 16.8693 8.26421C16.2985 8.42492 15.5545 8.7115 15.5545 8.7115L11.6947 7.16062L10.8687 7.50737ZM5.89505 2.17471L7.49101 3.37725L7.92703 3.3155L7.05833 2.23646C7.05833 2.23646 6.8692 2.01321 7.12361 1.96017C7.3797 1.90633 8.02746 1.78125 8.02746 1.78125L8.51453 2.14937L8.8426 2.10346L8.47101 1.54454L8.66685 0.924667L8.34966 0.968208L7.9739 1.44004C7.9739 1.44004 7.31442 1.49862 7.05499 1.51921C6.79388 1.53821 6.90602 1.273 6.90602 1.273L7.40648 0L6.96795 0.0609583L5.81303 1.65142C5.81303 1.65142 5.42806 1.71792 5.14938 1.79313C4.86985 1.86754 4.72256 2.07179 4.72256 2.07179C4.72256 2.07179 4.9276 2.22854 5.21633 2.223C5.50757 2.21746 5.89505 2.17471 5.89505 2.17471ZM13.7828 17.6265L12.7501 17.1158L12.5124 17.1942L13.1242 17.712C13.1242 17.712 13.2547 17.8172 13.1175 17.8735C12.9802 17.9289 12.6304 18.065 12.6304 18.065L12.3417 17.9431L12.1701 18.0017L12.4103 18.244L12.3868 18.5978L12.5659 18.5392L12.6998 18.2519C12.6998 18.2519 13.0631 18.1497 13.2078 18.1133C13.3518 18.0761 13.3192 18.236 13.3192 18.236L13.1827 19L13.4213 18.9216L13.8891 17.9115C13.8891 17.9115 14.0958 17.8347 14.2439 17.7642C14.3921 17.6937 14.4506 17.5639 14.4506 17.5639C14.4506 17.5639 14.3192 17.4958 14.1569 17.5299C13.9937 17.5623 13.7828 17.6265 13.7828 17.6265Z" fill="#666666"/>
</svg>

<svg xmlns="http://www.w3.org/2000/svg" width="19" height="19" fill="none"><path fill="#666" d="M1.641 4.96c.153-.194.355-.458.516-.646.484-.52.547-.588.987-.972.13-.1.286-.223.437-.338-1.117.895-1.26 1.885-.234 2.497-.002 0-.002 0-.002.002 1.434.817 4.575.64 7.054-.406 2.401-1.014 3.288-2.463 2.103-3.324-1.04-.185-2.281-.206-3.593-.04l-.137-.213.113-.353c.772-.066 1.505-.05 2.138.052.153.025.355.067.505.097.291.067.45.107.64.165.194.055.36.11.648.21.283.106.405.154.632.26.254.11.5.234.739.372 1.888 1.123.714 3.173-2.618 4.577-3.322 1.4-7.556 1.62-9.453.51-.001-.002-.004-.003-.009-.005h.004c-1.036-.62-1.145-1.521-.47-2.444Zm8.644 7.854-.026-1.262-.949-.997c-3.132.67-6.211.527-7.923-.427-.006-.007-.02-.013-.026-.02C.39 9.545.152 8.817.225 8.025-.002 9.183-.02 9.601.013 10.592c.04.62.419 1.193 1.181 1.644l.006.006c1.825 1.074 5.628 1.307 9.085.572Zm3.955 1.445c-4.422 1.677-9.955 1.776-12.359.224.26.6.613 1.16 1.048 1.66 2.206 1.426 7.285 1.335 11.342-.205 2.374-.9 3.872-2.098 4.265-3.22l.11-.339c.263-.856.312-1.57.354-2.204-.048 1.378-1.764 2.945-4.76 4.084Zm-9.76 3.23c.139.126.576.633 2.79 1.194.598.125 2.104.526 4.887-.058l.016-.24-.22-.326c-2.581.578-5.45.385-7.473-.57Zm6.389-9.982 2.35 1.686s.504.343.029.583c-.473.239-1.687.822-1.687.822l-1.2-.424-.601.254 1.061.871.008 1.357.624-.263.413-1.145s1.27-.462 1.774-.636c.506-.17.438.412.438.412l-.25 2.78.83-.349 1.364-3.75s.723-.332 1.231-.625c.508-.292.683-.776.683-.776s-.496-.202-1.067-.04c-.57.16-1.314.447-1.314.447l-3.86-1.55-.826.346ZM5.895 2.175l1.596 1.202.436-.061-.869-1.08s-.189-.223.066-.276c.256-.054.903-.179.903-.179l.488.368.328-.046-.372-.558.196-.62-.317.043-.376.472s-.66.059-.919.08c-.261.018-.149-.247-.149-.247L7.406 0l-.438.061-1.155 1.59s-.385.067-.664.142c-.28.075-.426.279-.426.279s.205.157.493.151c.292-.006.68-.048.68-.048Zm7.888 15.451-1.033-.51-.238.078.612.518s.13.105-.007.162c-.137.055-.487.191-.487.191l-.288-.122-.172.059.24.242-.023.354.179-.059.134-.287s.363-.102.508-.139c.144-.037.111.123.111.123l-.136.764.238-.078.468-1.01s.207-.077.355-.148c.148-.07.207-.2.207-.2s-.132-.068-.294-.034a4.73 4.73 0 0 0-.374.096Z"/></svg>
